X: 2
T: Yvonne Casey's
R: reel
M: 4/4
L: 1/8
K: Gmaj
GD D2 GABd|dBAB G3 B|AE E2 ABce|edce dBAB|
GD D2 GABd|dBAB G3 B|ABcA BdcA|1 BdcA GABA:|2 BdcA GABd||
|:gd d2 BG G2|DGBd gbag|ae e2 cA A2|EAce agfa|
gd d2 BG G2|DGBd gdBG|ABcA BdcA|1 BdcA GABd:|2 BdcA GABA||

